images/pin_b50f11.svg

<svg enable-background="new 0 0 93.169 93.169" fill="#9b59b6" height="93.169" viewBox="0 0 93.169 93.169" width="93.169" xmlns="http://www.w3.org/2000/svg"><path d="m64.902 0h-36.637c-3.711 0-6.72 3.009-6.72 6.72v79.729c0 3.712 3.008 6.72 6.72 6.72h36.637c3.713 0 6.722-3.008 6.722-6.72v-79.729c-.001-3.711-3.009-6.72-6.722-6.72zm-22.814 3.973h8.991c.323 0 .586.263.586.587 0 .323-.263.586-.586.586h-8.991c-.324 0-.586-.263-.586-.586 0-.324.263-.587.586-.587zm-8.962-1.41c.518 0 .938.42.938.938s-.419.938-.938.938-.938-.42-.938-.938.42-.938.938-.938zm-4.25-.562c.829 0 1.5.672 1.5 1.5s-.671 1.5-1.5 1.5-1.5-.672-1.5-1.5.671-1.5 1.5-1.5zm20.054 87.757h-4.691c-1.488 0-2.693-1.205-2.693-2.691 0-1.487 1.205-2.692 2.693-2.692h4.691c1.488 0 2.693 1.205 2.693 2.692 0 1.486-1.205 2.691-2.693 2.691zm19.847-7.51h-44.386v-71.328h44.386z"/></svg>

<?xml version="1.0" encoding="iso-8859-1"?>
<!-- Generator: Adobe Illustrator 16.0.0, SVG Export Plug-In . SVG Version: 6.00 Build 0)  -->
<!DOCTYPE svg PUBLIC "-//W3C//DTD SVG 1.1//EN" "http://www.w3.org/Graphics/SVG/1.1/DTD/svg11.dtd">
<svg version="1.1" id="Capa_1" xmlns="http://www.w3.org/2000/svg" xmlns:xlink="http://www.w3.org/1999/xlink" x="0px" y="0px"
	 width="93.169px" height="93.169px" viewBox="0 0 93.169 93.169" style="enable-background:new 0 0 93.169 93.169;"
	 xml:space="preserve"
	 fill="#9b59b6">

<g>
	<path d="M64.902,0H28.265c-3.711,0-6.72,3.009-6.72,6.72v79.729c0,3.712,3.008,6.72,6.72,6.72h36.637
		c3.713,0,6.722-3.008,6.722-6.72V6.72C71.623,3.009,68.615,0,64.902,0z M42.088,3.973h8.991c0.323,0,0.586,0.263,0.586,0.587
		c0,0.323-0.263,0.586-0.586,0.586h-8.991c-0.324,0-0.586-0.263-0.586-0.586C41.502,4.236,41.765,3.973,42.088,3.973z M33.126,2.563
		c0.518,0,0.938,0.42,0.938,0.938c0,0.518-0.419,0.938-0.938,0.938s-0.938-0.42-0.938-0.938C32.188,2.983,32.608,2.563,33.126,2.563
		z M28.876,2.001c0.829,0,1.5,0.672,1.5,1.5c0,0.828-0.671,1.5-1.5,1.5s-1.5-0.672-1.5-1.5C27.376,2.673,28.047,2.001,28.876,2.001z
		 M48.93,89.758h-4.691c-1.488,0-2.693-1.205-2.693-2.691c0-1.487,1.205-2.692,2.693-2.692h4.691c1.488,0,2.693,1.205,2.693,2.692
		C51.623,88.553,50.418,89.758,48.93,89.758z M68.777,82.248H24.391V10.92h44.386V82.248z"/>
</g>
<g>
</g>
<g>
</g>
<g>
</g>
<g>
</g>
<g>
</g>
<g>
</g>
<g>
</g>
<g>
</g>
<g>
</g>
<g>
</g>
<g>
</g>
<g>
</g>
<g>
</g>
<g>
</g>
<g>
</g>
</svg>
